icons/op-align-center-24.svg

<svg width="24" height="24" viewBox="0 0 24 24" fill="none" xmlns="http://www.w3.org/2000/svg">
<path d="M15 7.09091H9V6H15V7.09091ZM20 11.4545H4V10.3636H20V11.4545ZM17 9.27273H6V8.18182H17V9.27273ZM19 13.6364H5V12.5455H19V13.6364ZM17 15.8182H7V14.7273H17V15.8182ZM18 18H5V16.9091H18V18Z" fill="black"/>
</svg>

<svg xmlns="http://www.w3.org/2000/svg" width="24" height="24" viewBox="0 0 24 24"><path d="M15 7.091H9V6h6v1.091Zm5 4.363H4v-1.09h16v1.09Zm-3-2.181H6V8.182h11v1.091Zm2 4.363H5v-1.09h14v1.09Zm-2 2.182H7v-1.091h10v1.091ZM18 18H5v-1.091h13V18Z"/></svg>
